X:1
T:Drimen Duff
M:3/8
L:1/16
K:C
A-B| c4 B2| A2E2A-B| c4 B2| A4G-A| B4 A2| G2D-EG-A| B3c-B A| G4A-B|\
 c4 B2| A4 E2| c2 cd eg| a4 g2|e-d-e ga B| A4||
